img/icon_instagram.svg

<svg width="41" height="42" viewBox="0 0 41 42" fill="none" xmlns="http://www.w3.org/2000/svg">
<path fill-rule="evenodd" clip-rule="evenodd" d="M20.5 0.684326C9.17816 0.684326 0 9.8559 0 21.1696C0 32.4833 9.17816 41.6549 20.5 41.6549C31.8218 41.6549 41 32.4833 41 21.1696C41 9.8559 31.8218 0.684326 20.5 0.684326ZM15.9928 10.3101C17.159 10.2571 17.5317 10.2441 20.501 10.2441H20.4976C23.4679 10.2441 23.8391 10.2571 25.0054 10.3101C26.1693 10.3634 26.9643 10.5475 27.6613 10.8177C28.3811 11.0966 28.9893 11.4698 29.5974 12.0776C30.2056 12.6849 30.5792 13.2944 30.8593 14.013C31.1281 14.7077 31.3126 15.5016 31.3673 16.6647C31.4197 17.8301 31.4333 18.2025 31.4333 21.1697C31.4333 24.1369 31.4197 24.5084 31.3673 25.6738C31.3126 26.8365 31.1281 27.6306 30.8593 28.3255C30.5792 29.0439 30.2056 29.6535 29.5974 30.2607C28.9899 30.8685 28.3808 31.2427 27.662 31.5217C26.9663 31.7919 26.1709 31.9761 25.007 32.0293C23.8407 32.0824 23.4692 32.0953 20.4997 32.0953C17.5305 32.0953 17.1581 32.0824 15.9919 32.0293C14.8282 31.9761 14.0334 31.7919 13.3378 31.5217C12.6191 31.2427 12.0092 30.8685 11.4017 30.2607C10.7937 29.6535 10.4202 29.0439 10.1407 28.3253C9.87053 27.6306 9.68625 26.8367 9.63272 25.6736C9.57988 24.5082 9.56667 24.1369 9.56667 21.1697C9.56667 18.2025 9.58033 17.8299 9.63249 16.6645C9.68488 15.5018 9.86939 14.7077 10.1404 14.0128C10.4206 13.2944 10.7942 12.6849 11.4023 12.0776C12.0101 11.4701 12.6201 11.0968 13.3392 10.8177C14.0343 10.5475 14.8288 10.3634 15.9928 10.3101Z" fill="white"/>
<path fill-rule="evenodd" clip-rule="evenodd" d="M19.5202 12.2129C19.7107 12.2126 19.9155 12.2127 20.1366 12.2128L20.501 12.2129C23.4203 12.2129 23.7663 12.2234 24.919 12.2758C25.9851 12.3245 26.5636 12.5025 26.949 12.652C27.4593 12.85 27.823 13.0868 28.2055 13.4692C28.5881 13.8515 28.825 14.2157 29.0236 14.7256C29.1733 15.1103 29.3517 15.6884 29.4002 16.7537C29.4526 17.9054 29.4639 18.2514 29.4639 21.1672C29.4639 24.0829 29.4526 24.4289 29.4002 25.5806C29.3514 26.6459 29.1733 27.224 29.0236 27.6087C28.8255 28.1186 28.5881 28.4816 28.2055 28.8638C27.8228 29.2462 27.4595 29.4829 26.949 29.6809C26.5641 29.8312 25.9851 30.0087 24.919 30.0574C23.7665 30.1098 23.4203 30.1211 20.501 30.1211C17.5816 30.1211 17.2356 30.1098 16.083 30.0574C15.017 30.0082 14.4384 29.8302 14.0528 29.6807C13.5426 29.4827 13.1781 29.246 12.7954 28.8636C12.4128 28.4812 12.1759 28.1179 11.9773 27.6078C11.8276 27.2231 11.6493 26.645 11.6007 25.5797C11.5484 24.428 11.5379 24.082 11.5379 21.1644C11.5379 18.2468 11.5484 17.9027 11.6007 16.7509C11.6495 15.6857 11.8276 15.1075 11.9773 14.7224C12.1754 14.2125 12.4128 13.8484 12.7954 13.466C13.1781 13.0836 13.5426 12.8468 14.0528 12.6484C14.4382 12.4981 15.017 12.3206 16.083 12.2717C17.0916 12.2261 17.4825 12.2125 19.5202 12.2102V12.2129ZM26.3372 14.027C25.6129 14.027 25.0252 14.6136 25.0252 15.3377C25.0252 16.0615 25.6129 16.6487 26.3372 16.6487C27.0615 16.6487 27.6492 16.0615 27.6492 15.3377C27.6492 14.6138 27.0615 14.0266 26.3372 14.0266V14.027ZM14.8862 21.1697C14.8862 18.0712 17.4001 15.559 20.5008 15.5589C23.6016 15.5589 26.1149 18.0711 26.1149 21.1697C26.1149 24.2682 23.6018 26.7793 20.501 26.7793C17.4003 26.7793 14.8862 24.2682 14.8862 21.1697Z" fill="white"/>
<path d="M20.501 17.5278C22.5137 17.5278 24.1455 19.1583 24.1455 21.1697C24.1455 23.1809 22.5137 24.8116 20.501 24.8116C18.4881 24.8116 16.8565 23.1809 16.8565 21.1697C16.8565 19.1583 18.4881 17.5278 20.501 17.5278Z" fill="white"/>
</svg>

<svg width="41" height="42" fill="none" xmlns="http://www.w3.org/2000/svg"><path fill-rule="evenodd" clip-rule="evenodd" d="M20.5.684C9.178.684 0 9.856 0 21.17c0 11.313 9.178 20.485 20.5 20.485S41 32.483 41 21.17C41 9.856 31.822.684 20.5.684zm-4.507 9.626c1.166-.053 1.539-.066 4.508-.066h-.003c2.97 0 3.341.013 4.507.066 1.164.053 1.96.237 2.656.508a5.34 5.34 0 011.936 1.26 5.36 5.36 0 011.262 1.935c.27.695.454 1.489.508 2.652.053 1.165.066 1.538.066 4.505 0 2.967-.013 3.338-.066 4.504-.054 1.163-.239 1.957-.508 2.652a5.36 5.36 0 01-1.262 1.935 5.349 5.349 0 01-1.935 1.26c-.696.27-1.491.455-2.655.508-1.166.053-1.538.066-4.507.066-2.97 0-3.342-.013-4.508-.066-1.164-.053-1.959-.237-2.654-.507a5.352 5.352 0 01-1.936-1.261 5.352 5.352 0 01-1.261-1.936c-.27-.694-.455-1.488-.508-2.651-.053-1.166-.066-1.537-.066-4.504 0-2.968.013-3.34.065-4.506.053-1.162.237-1.956.508-2.651a5.364 5.364 0 011.262-1.935 5.356 5.356 0 011.937-1.26c.695-.27 1.49-.455 2.654-.508z" fill="#fff"/><path fill-rule="evenodd" clip-rule="evenodd" d="M19.52 12.213h.981c2.92 0 3.265.01 4.418.063 1.066.049 1.645.226 2.03.376.51.198.874.435 1.256.817.383.383.62.747.819 1.257.15.384.328.962.376 2.028.053 1.151.064 1.497.064 4.413 0 2.916-.011 3.262-.064 4.414-.049 1.065-.227 1.643-.376 2.028-.198.51-.436.873-.819 1.255a3.374 3.374 0 01-1.256.817c-.385.15-.964.328-2.03.376-1.152.053-1.499.064-4.418.064-2.92 0-3.265-.011-4.418-.064-1.066-.049-1.645-.227-2.03-.376a3.387 3.387 0 01-1.258-.817 3.387 3.387 0 01-.818-1.256c-.15-.385-.328-.963-.376-2.028-.053-1.152-.063-1.498-.063-4.416 0-2.917.01-3.261.063-4.413.048-1.065.227-1.644.376-2.029.198-.51.436-.874.818-1.256a3.4 3.4 0 011.258-.818c.385-.15.964-.327 2.03-.376 1.009-.046 1.4-.06 3.437-.062v.003zm6.817 1.814a1.311 1.311 0 10-.001 2.624 1.311 1.311 0 00.001-2.624zm-11.45 7.143a5.613 5.613 0 015.614-5.611c3.1 0 5.614 2.512 5.614 5.61a5.611 5.611 0 01-5.614 5.61 5.612 5.612 0 01-5.615-5.61z" fill="#fff"/><path d="M20.501 17.528a3.643 3.643 0 013.644 3.642 3.643 3.643 0 01-3.644 3.642 3.643 3.643 0 110-7.284z" fill="#fff"/></svg>
